lib/brands/logos/c-panel.svg

<svg xmlns="http://www.w3.org/2000/svg" fill="none" aria-hidden="true" viewBox="0 0 217 55"><g id="CPanel"><path id="Vector" fill="#FF6C2C" d="M23.212 16.2573H35.9832L34.0053 23.8297C33.7032 24.885 33.1381 25.7326 32.31 26.3727C31.481 27.0139 30.5201 27.3336 29.4282 27.3336H23.4946C22.1381 27.3336 20.9416 27.7289 19.906 28.5203C18.8692 29.3114 18.1445 30.3849 17.7301 31.7412C17.4664 32.7586 17.4381 33.7192 17.6455 34.6232C17.8524 35.5276 18.2195 36.3285 18.7475 37.0249C19.2747 37.7224 19.9527 38.2779 20.7821 38.6923C21.6101 39.1073 22.5145 39.3136 23.4946 39.3136H27.111C27.7892 39.3136 28.3447 39.5875 28.7781 40.133C29.2108 40.6796 29.3336 41.2914 29.1456 41.9696L26.8852 50.3331H22.9295C20.217 50.3331 17.7207 49.7398 15.4418 48.5532C13.1618 47.3663 11.2687 45.794 9.76252 43.8344C8.2552 41.8761 7.22822 39.644 6.68271 37.1383C6.13606 34.6332 6.20218 32.0618 6.88031 29.4243L7.10654 28.5766C7.59554 26.7685 8.35843 25.1012 9.39483 23.5756C10.4309 22.0496 11.6552 20.7501 13.068 19.6762C14.4808 18.6025 16.0536 17.7646 17.7868 17.1617C19.5192 16.5595 21.3276 16.2573 23.212 16.2573ZM29.6537 50.3332L40.7862 8.62849C41.0871 7.5742 41.6522 6.72654 42.4815 6.08552C43.3096 5.44526 44.2703 5.12485 45.3636 5.12485H57.1743C59.8868 5.12485 62.3819 5.71821 64.6619 6.90493C66.9406 8.09164 68.8339 9.66527 70.3412 11.6235C71.8474 13.5828 72.8841 15.8151 73.4493 18.32C74.0144 20.8261 73.9383 23.3971 73.223 26.0337L72.9972 26.8814C72.507 28.6897 71.7539 30.3568 70.7368 31.8825C69.7194 33.4083 68.5046 34.7178 67.0918 35.81C65.6791 36.9031 64.1054 37.7508 62.373 38.353C60.6399 38.9561 58.8315 39.2573 56.9482 39.2573H46.7198L48.7542 31.6282C49.0552 30.611 49.6203 29.7828 50.4495 29.1418C51.2778 28.5017 52.2383 28.1811 53.3314 28.1811H56.6092C57.9652 28.1811 59.1804 27.7669 60.2539 26.9379C61.3278 26.1096 62.0342 25.0359 62.373 23.7168C62.6362 22.7755 62.6644 21.8519 62.458 20.9478C62.2506 20.0436 61.8831 19.2436 61.3558 18.5461C60.8278 17.8495 60.1497 17.2844 59.3216 16.8508C58.4925 16.4181 57.5885 16.2009 56.6092 16.2009H50.28L42.0293 46.8862C41.7273 47.9032 41.1622 48.7324 40.334 49.3725C39.5051 50.0135 38.5629 50.3332 37.5084 50.3332H29.6537ZM100.121 28.068L100.291 27.4464C100.366 27.1454 100.319 26.8911 100.15 26.6835C99.9801 26.4771 99.7446 26.3727 99.4432 26.3727H81.0774C80.2864 26.3727 79.57 26.2034 78.93 25.8641C78.2891 25.5251 77.7619 25.0826 77.348 24.5361C76.9329 23.9906 76.6503 23.3592 76.5004 22.643C76.3491 21.9278 76.3678 21.1932 76.5565 20.4391L77.6867 16.1443H102.551C104.096 16.1443 105.509 16.4834 106.79 17.1617C108.07 17.8397 109.135 18.7252 109.983 19.8175C110.83 20.9106 111.414 22.1627 111.734 23.5755C112.054 24.9882 112.026 26.4486 111.65 27.955L107.185 44.5693C106.733 46.2646 105.819 47.64 104.445 48.6945C103.069 49.7498 101.496 50.2768 99.7258 50.2768L81.3599 50.2203C79.7397 50.2203 78.2518 49.8722 76.8958 49.1747C75.5393 48.4783 74.428 47.5555 73.5615 46.4059C72.6946 45.2572 72.0924 43.9386 71.7531 42.4501C71.4144 40.9622 71.4523 39.446 71.8662 37.9009L72.0924 37.0532C72.3555 35.9991 72.7988 35.019 73.4202 34.1148C74.042 33.2105 74.7666 32.4387 75.596 31.7977C76.4241 31.1575 77.348 30.6587 78.3649 30.3004C79.382 29.9427 80.4561 29.7634 81.5863 29.7634H97.0133L95.8831 34.0018C95.5813 35.019 95.0162 35.848 94.1878 36.4881C93.359 37.1293 92.4167 37.4488 91.3622 37.4488H84.468C83.8272 37.4488 83.4129 37.7696 83.2249 38.4096C83.1119 38.8246 83.1871 39.1919 83.4508 39.5116C83.7141 39.832 84.053 39.9917 84.468 39.9917H95.6005C96.0148 39.9917 96.3725 39.8787 96.6744 39.6529C96.9754 39.4266 97.1634 39.1256 97.2395 38.7485L97.3525 38.2964L100.121 28.068ZM133.011 16.2573C135.76 16.2573 138.275 16.8507 140.554 18.0374C142.834 19.2241 144.726 20.7977 146.234 22.756C147.74 24.7154 148.767 26.9574 149.313 29.4808C149.859 32.0053 149.775 34.5865 149.059 37.2229L146.234 47.8468C146.045 48.6007 145.64 49.2029 145.019 49.6552C144.397 50.1073 143.709 50.3331 142.956 50.3331H136.853C136.137 50.3331 135.572 50.0605 135.158 49.5139C134.743 48.9682 134.63 48.3552 134.819 47.6773L138.209 34.8494C138.473 33.908 138.501 32.9846 138.294 32.0802C138.086 31.1761 137.719 30.3761 137.192 29.6785C136.664 28.982 135.986 28.4169 135.158 27.9832C134.329 27.5506 133.424 27.3336 132.446 27.3336H126.116L120.634 47.8468C120.446 48.6007 120.041 49.2029 119.42 49.6552C118.798 50.1073 118.091 50.3331 117.3 50.3331H111.254C110.576 50.3331 110.019 50.0605 109.587 49.5139C109.154 48.9682 109.031 48.3552 109.219 47.6773L117.583 16.2573H133.011ZM166.294 27.0226C165.843 27.3811 165.522 27.842 165.334 28.4071L162.791 38.0139C162.64 38.5421 162.735 39.0311 163.073 39.4832C163.413 39.9355 163.865 40.1613 164.43 40.1613H187.825L186.017 46.8862C185.715 47.9032 185.15 48.7324 184.321 49.3725C183.492 50.0135 182.55 50.3332 181.496 50.3332H160.192C158.646 50.3332 157.234 50.0039 155.953 49.3443C154.672 48.6857 153.608 47.8002 152.76 46.6883C151.913 45.5776 151.328 44.315 151.009 42.9023C150.689 41.4895 150.736 40.0483 151.15 38.579L154.597 25.7512C154.973 24.358 155.557 23.0767 156.349 21.9084C157.14 20.7411 158.073 19.7426 159.146 18.9134C160.22 18.0851 161.425 17.4355 162.763 16.9638C164.1 16.4932 165.484 16.2574 166.916 16.2574H182.004C183.549 16.2574 184.962 16.5965 186.243 17.2746C187.523 17.9527 188.588 18.8384 189.436 19.9306C190.284 21.0237 190.857 22.2856 191.159 23.7168C191.46 25.1489 191.422 26.5988 191.046 28.0681L190.029 31.9108C189.577 33.6063 188.663 34.972 187.288 36.008C185.913 37.0444 184.359 37.562 182.626 37.562H165.56L166.69 33.3801C166.953 32.3629 167.5 31.5346 168.329 30.8936C169.157 30.2533 170.118 29.9329 171.211 29.9329H178.105C178.746 29.9329 179.159 29.6133 179.349 28.9722L179.574 28.1246C179.688 27.7104 179.612 27.3334 179.349 26.9944C179.084 26.6553 178.746 26.4858 178.331 26.4858H167.821C167.256 26.4858 166.747 26.6651 166.294 27.0226ZM187.768 50.3332L199.126 7.66782C199.314 6.91472 199.719 6.30271 200.341 5.83123C200.963 5.36068 201.669 5.12485 202.46 5.12485H208.507C209.222 5.12485 209.797 5.39855 210.231 5.94425C210.663 6.49089 210.786 7.10271 210.598 7.78084L202.121 39.2573C201.706 40.9155 201.038 42.4217 200.115 43.7782C199.191 45.1342 198.099 46.2929 196.837 47.2534C195.575 48.214 194.172 48.9683 192.627 49.5138C191.082 50.0606 189.463 50.3332 187.768 50.3332Z"/></g></svg>

<svg xmlns="http://www.w3.org/2000/svg" fill="none" aria-hidden="true" viewBox="0 0 217 55"><path fill="#FF6C2C" d="M23.212 16.257h12.771l-1.978 7.573c-.302 1.055-.867 1.903-1.695 2.543-.829.64-1.79.96-2.882.96h-5.933c-1.357 0-2.553.396-3.589 1.187-1.037.791-1.761 1.865-2.176 3.221-.264 1.018-.292 1.978-.085 2.882a6.217 6.217 0 0 0 1.102 2.402 5.694 5.694 0 0 0 2.035 1.667 5.968 5.968 0 0 0 2.713.622h3.616c.678 0 1.234.273 1.667.819.433.547.556 1.158.368 1.837l-2.26 8.363H22.93c-2.713 0-5.21-.593-7.488-1.78-2.28-1.187-4.173-2.759-5.68-4.719-1.507-1.958-2.534-4.19-3.08-6.696-.546-2.505-.48-5.076.198-7.714l.227-.847a16.5 16.5 0 0 1 2.288-5.001 16.482 16.482 0 0 1 3.673-3.9 16.937 16.937 0 0 1 4.719-2.514 16.405 16.405 0 0 1 5.425-.905Zm6.442 34.076L40.786 8.628c.301-1.054.866-1.901 1.695-2.542.829-.64 1.79-.961 2.883-.961h11.81c2.713 0 5.208.593 7.488 1.78 2.279 1.187 4.172 2.76 5.68 4.718 1.505 1.96 2.542 4.192 3.107 6.697.565 2.506.49 5.077-.226 7.714l-.226.847a16.942 16.942 0 0 1-2.26 5.002 16.475 16.475 0 0 1-3.645 3.927 16.515 16.515 0 0 1-4.719 2.543 16.388 16.388 0 0 1-5.425.904H46.72l2.034-7.629a4.778 4.778 0 0 1 1.696-2.486c.828-.64 1.788-.96 2.881-.96h3.278a5.808 5.808 0 0 0 3.645-1.244 5.772 5.772 0 0 0 2.119-3.221 5.55 5.55 0 0 0 .085-2.77 6.244 6.244 0 0 0-1.102-2.4 6.002 6.002 0 0 0-2.034-1.696 5.774 5.774 0 0 0-2.713-.65H50.28l-8.25 30.685a4.786 4.786 0 0 1-1.696 2.486 4.497 4.497 0 0 1-2.826.961h-7.854Zm70.467-22.265.17-.622c.075-.3.028-.555-.141-.763-.17-.206-.405-.31-.707-.31H81.077c-.79 0-1.507-.17-2.147-.509a4.72 4.72 0 0 1-1.582-1.328 4.656 4.656 0 0 1-.848-1.893 4.843 4.843 0 0 1 .056-2.204l1.13-4.295h24.865c1.545 0 2.958.34 4.239 1.018 1.28.678 2.345 1.563 3.193 2.655a9.473 9.473 0 0 1 1.751 3.759c.32 1.412.292 2.873-.084 4.379l-4.465 16.614c-.452 1.696-1.366 3.071-2.74 4.125-1.376 1.056-2.949 1.583-4.72 1.583L81.36 50.22c-1.62 0-3.108-.348-4.464-1.045-1.357-.697-2.468-1.62-3.335-2.77-.866-1.148-1.469-2.466-1.808-3.955-.339-1.488-.3-3.004.113-4.55l.226-.847a9 9 0 0 1 1.328-2.938 10.217 10.217 0 0 1 2.176-2.317 9.841 9.841 0 0 1 2.769-1.498 9.64 9.64 0 0 1 3.221-.537h15.427l-1.13 4.239a4.783 4.783 0 0 1-1.695 2.486 4.495 4.495 0 0 1-2.826.96h-6.894c-.64 0-1.055.322-1.243.962-.113.415-.038.782.226 1.102.263.32.602.48 1.017.48H95.6c.415 0 .773-.113 1.074-.34.301-.225.49-.526.566-.904l.113-.452 2.768-10.228Zm32.89-11.81c2.749 0 5.264.593 7.543 1.78 2.28 1.186 4.172 2.76 5.68 4.718 1.506 1.96 2.533 4.201 3.079 6.725.546 2.524.462 5.105-.254 7.742l-2.825 10.624a3.102 3.102 0 0 1-1.215 1.808 3.43 3.43 0 0 1-2.063.678h-6.103c-.716 0-1.281-.273-1.695-.82-.415-.545-.528-1.158-.339-1.836l3.39-12.828a5.535 5.535 0 0 0 .085-2.769 6.258 6.258 0 0 0-1.102-2.401 6.004 6.004 0 0 0-2.034-1.696 5.777 5.777 0 0 0-2.712-.65h-6.33l-5.482 20.514a3.096 3.096 0 0 1-1.214 1.808 3.515 3.515 0 0 1-2.12.678h-6.046c-.678 0-1.235-.273-1.667-.82-.433-.545-.556-1.158-.368-1.836l8.364-31.42h15.428Zm33.283 10.765a2.893 2.893 0 0 0-.96 1.384l-2.543 9.607c-.151.528-.056 1.017.282 1.47.34.451.792.677 1.357.677h23.395l-1.808 6.725a4.783 4.783 0 0 1-1.696 2.486 4.496 4.496 0 0 1-2.825.961h-21.304c-1.546 0-2.958-.33-4.239-.989a9.31 9.31 0 0 1-3.193-2.656 9.684 9.684 0 0 1-1.751-3.786c-.32-1.413-.273-2.854.141-4.323l3.447-12.828a12.69 12.69 0 0 1 1.752-3.843 12.894 12.894 0 0 1 2.797-2.995 12.896 12.896 0 0 1 3.617-1.95 12.417 12.417 0 0 1 4.153-.706h15.088c1.545 0 2.958.34 4.239 1.018 1.28.678 2.345 1.563 3.193 2.656.848 1.093 1.421 2.355 1.723 3.786a9.471 9.471 0 0 1-.113 4.351l-1.017 3.843c-.452 1.695-1.366 3.061-2.741 4.097-1.375 1.036-2.929 1.554-4.662 1.554H165.56l1.13-4.182a4.477 4.477 0 0 1 1.639-2.486c.828-.64 1.789-.961 2.882-.961h6.894c.641 0 1.054-.32 1.244-.96l.225-.848a1.224 1.224 0 0 0-.225-1.13c-.265-.34-.603-.51-1.018-.51h-10.51a2.4 2.4 0 0 0-1.527.538Zm21.474 23.31 11.358-42.665a3.221 3.221 0 0 1 1.215-1.837 3.42 3.42 0 0 1 2.119-.706h6.047c.715 0 1.29.274 1.724.82.432.546.555 1.158.367 1.836l-8.477 31.476a14.007 14.007 0 0 1-2.006 4.521 14.803 14.803 0 0 1-3.278 3.475 15.327 15.327 0 0 1-4.21 2.26c-1.545.548-3.164.82-4.859.82Z"/></svg>
